X:019
T:BVB March
C:Dave Ingledew
M:4/4
L:1/8
K:G
GA | B2 BA G2 D2 | E2 E2 D4 | B2 AB d2 B2 | A6 GA | 
B2 BA G2 D2 | E2 E2 D4 | B2 dB A2 BA | G4 G2 :| 
|: AB | c2 cd e2 d2 | c2 A2 B4 | c2 cd e2 d2 | A6 GA | 
B2 BA G2 D2 | E2 E2 D4 | B2 dB A2 BA | G4 G2 :|| 

